X:194
T:Lough Gill
M:6/8
L:1/8
R:jig
N:Learned from Kira Ott
Z:Michael Abraham Shulman
K:G
|:E|DGG BGG|dGG BGG|DFA DFA|DFA cBA|
DGG BGG|dGG BGG|DFA cBA|BGF G2:|
|:B|dgg bgg|aff gee|A^ce aba|gag fed|
Bdg bgg|aff gee|ABc dcA|AGF G2:|
